desafio-5/public/svg/gas-pump.svg

<svg width="78" height="78" viewBox="0 0 78 78" fill="none" xmlns="http://www.w3.org/2000/svg"><g clip-path="url(#clip0)"><path d="M77.8477 38.8477C77.8477 60.387 60.387 77.8477 38.8477 77.8477C29.4749 77.8477 20.8741 74.5413 14.1501 69.0308C12.2417 67.4686 10.4861 65.7292 8.90497 63.8362C6.19432 60.5923 4.00081 56.9004 2.45357 52.8895C1.55438 50.5638 0.873001 48.1311 0.433228 45.6145C0.0482025 43.4162 -0.152344 41.156 -0.152344 38.8477C-0.152344 17.3083 17.3083 -0.152344 38.8477 -0.152344C60.387 -0.152344 77.8477 17.3083 77.8477 38.8477Z" fill="#F4CA19"/><path d="M46.5553 40.339C46.5475 40.5526 46.5362 40.7657 46.5237 40.9793C45.8662 51.7701 39.0738 61.1559 29.2619 65.4251C28.5835 65.7197 27.8926 65.9899 27.1874 66.235L22.8271 67.7478L32.1189 58.4578C36.3024 54.2743 39.0018 48.9226 39.8932 43.1395C40.0497 42.1284 40.1515 41.1031 40.1943 40.07L46.5553 40.339Z" fill="#E6E6E6"/><path d="M41.4488 43.2043C41.4405 43.418 44.1005 39.632 44.1005 39.8456C44.1005 49.1803 36.2655 60.5061 29.2619 65.4251C28.5835 65.7197 27.8926 65.9898 27.1874 66.235L22.8271 67.7477L32.1189 58.4578C36.3024 54.2743 39.0018 48.9226 39.8932 43.1395L41.4488 43.2043Z" fill="#B3B3B3"/><path d="M39.5291 43.6519L14.1502 69.0308C12.2417 67.4687 10.4862 65.7292 8.90501 63.8362C6.19437 60.5924 4.00085 56.9004 2.45361 52.8895L16.4169 38.9274L39.5291 43.6519Z" fill="#31474C"/><path d="M77.847 19.1454L64.098 20.5218C60.7714 20.8539 57.6621 22.3279 55.2978 24.6916L55.0556 24.9344L44.9687 35.0206L43.4281 36.5613L39.4939 32.6254L37.8752 31.0067L44.4492 24.4328L49.3117 19.5685C49.4873 19.3923 49.6652 19.2215 49.8461 19.0525C50.6233 18.3206 51.4445 17.6445 52.3062 17.0304C55.7096 14.5881 59.7104 13.0659 63.9225 12.6446L77.0639 11.3294L77.2394 13.0927L77.847 19.1454Z" fill="#B3B3B3"/><path d="M39.5291 43.6519L33.6091 49.5719L2.45361 52.8895L16.4169 38.9274L39.5291 43.6519Z" fill="#213235"/><path d="M77.847 19.1453L64.098 20.5218C60.7714 20.8539 57.6621 22.3279 55.2978 24.6916L55.0556 24.9344L44.9688 35.0206L43.4281 36.5613L39.4939 32.6254L46.0679 26.0514L50.9304 21.1871C51.1059 21.011 51.2839 20.8402 51.4648 20.6712C52.2414 19.9386 53.0632 19.2632 53.9249 18.649C57.3282 16.2068 61.329 14.6845 65.5411 14.2626L77.2394 13.0927L77.847 19.1453Z" fill="#E6E6E6"/><path d="M48.7041 36.4423L48.3554 42.695L12.886 46.428L2.35767 47.536L13.2526 36.6429L36.9403 26.5156C38.5958 25.8074 40.5156 26.1781 41.7891 27.4516L47.4199 33.0818C48.306 33.9685 48.7743 35.1914 48.7041 36.4423Z" fill="#FF2751"/><path d="M50.3608 29.6291L48.0132 31.9761L45.146 23.7353L47.4936 21.3882L50.3608 29.6291Z" fill="#B3B3B3"/><path d="M55.0556 24.9344L52.708 27.2815L49.8462 19.0525C50.6234 18.3206 51.4452 17.6445 52.3069 17.0304L55.0556 24.9344Z" fill="#B3B3B3"/><path d="M41.7891 27.4516L19.7124 39.6005L12.886 46.428L2.35767 47.536L13.2526 36.6429L36.9403 26.5156C38.5958 25.8074 40.5156 26.1781 41.7891 27.4516Z" fill="#D10F46"/></g><defs><clipPath id="clip0"><rect width="78" height="78" fill="white"/></clipPath></defs></svg>

<svg width="78" height="78" fill="none" xmlns="http://www.w3.org/2000/svg"><g clip-path="url(#a)"><path d="M77.848 38.848c0 21.539-17.461 39-39 39A38.83 38.83 0 0 1 14.15 69.03 39.124 39.124 0 0 1 2.454 52.889a38.578 38.578 0 0 1-2.02-7.275 39.192 39.192 0 0 1-.586-6.766c0-21.54 17.46-39 39-39 21.539 0 39 17.46 39 39z" fill="#F4CA19"/><path d="M46.555 40.339c-.008.214-.019.427-.031.64-.658 10.791-7.45 20.177-17.262 24.446-.678.295-1.37.565-2.075.81l-4.36 1.513 9.292-9.29a27.564 27.564 0 0 0 7.774-15.319c.157-1.01.258-2.036.301-3.069l6.361.269z" fill="#E6E6E6"/><path d="M41.449 43.204c-.008.214 2.651-3.572 2.651-3.358 0 9.334-7.834 20.66-14.838 25.58-.678.294-1.37.564-2.075.809l-4.36 1.513 9.292-9.29a27.564 27.564 0 0 0 7.774-15.319l1.556.065z" fill="#B3B3B3"/><path d="M39.53 43.652 14.15 69.03A39.116 39.116 0 0 1 2.454 52.889l13.963-13.962 23.112 4.725z" fill="#31474C"/><path d="m77.847 19.145-13.749 1.377a14.483 14.483 0 0 0-8.8 4.17l-.242.242-10.087 10.087-1.54 1.54-3.935-3.936-1.619-1.618 6.574-6.574 4.863-4.864a23.394 23.394 0 0 1 2.994-2.538 24.021 24.021 0 0 1 11.617-4.386l13.14-1.316.176 1.764.608 6.052z" fill="#B3B3B3"/><path d="m39.53 43.652-5.92 5.92-31.156 3.317 13.963-13.962 23.112 4.725z" fill="#213235"/><path d="m77.847 19.145-13.749 1.377a14.483 14.483 0 0 0-8.8 4.17l-.242.242-10.087 10.087-1.54 1.54-3.935-3.936 6.574-6.574 4.862-4.864c.176-.176.354-.347.535-.516a23.26 23.26 0 0 1 2.46-2.022 24.028 24.028 0 0 1 11.616-4.386l11.698-1.17.608 6.052z" fill="#E6E6E6"/><path d="m48.704 36.442-.349 6.253-35.469 3.733-10.528 1.108 10.895-10.893L36.94 26.516a4.406 4.406 0 0 1 4.85.936l5.63 5.63a4.408 4.408 0 0 1 1.284 3.36z" fill="#FF2751"/><path d="m50.36 29.63-2.347 2.346-2.867-8.24 2.348-2.348 2.867 8.241zM55.056 24.934l-2.348 2.348-2.862-8.23a23.401 23.401 0 0 1 2.46-2.022l2.75 7.904z" fill="#B3B3B3"/><path d="M41.79 27.452 19.711 39.6l-6.826 6.828-10.528 1.108 10.895-10.893L36.94 26.516a4.406 4.406 0 0 1 4.85.936z" fill="#D10F46"/></g><defs><clipPath id="a"><path fill="#fff" d="M0 0h78v78H0z"/></clipPath></defs></svg>
